img/manaSymbols/fab/fabb.svg

﻿<?xml version="1.0" encoding="utf-8"?>
<svg width="135" height="135" viewBox="0 0 135 135" version="1.1" xmlns="http://www.w3.org/2000/svg" xml:space="preserve" style="fill-rule: evenodd; clip-rule: evenodd; stroke-linejoin: round; stroke-miterlimit: 2;" preserveAspectRatio="xMidYMid meet" zoomAndPan="magnify" contentScriptType="application/ecmascript" contentStyleType="text/css">
  <g transform="matrix(1,0,0,1,-515,-643) matrix(1,0,0,1,1177,-1730.64)">
    <g id="Shield" transform="matrix(0.992063,0,0,0.992063,-756.206,521.5)">
      <circle cx="163" cy="1935" r="63" style="fill: rgb(164, 166, 170);" />
      <clipPath id="_clip1">
        <circle cx="163" cy="1935" r="63" />
      </clipPath>
      <g clip-path="url(#_clip1)">
        <path d="M1338.14 1982.82c-30.43-15.23-43.21-41.9-40.14-78.82 13.89.44 27.34-3.67 40.5-11l.31.17c13.06 7.23 26.41 11.27 40.19 10.83 3.08 37.07-9.81 63.8-40.5 79l-.36-.18zM1309 1925c21.03 8.79 45.78 25.88 47 33 1 5.84-17.5 16-17.5 16-19.28-14.25-29.65-30.47-29.5-49zm56 19c4.91-7.76 6.53-19.18 6-33-10.8-.4-21.9-9.2-32.5-9-7.3.14-18.1 4.43-19.5 9-2.73 8.89 20.01 25.82 46 33z" transform="matrix(1.008,0,0,1.008,-1186.21,-13.968)" />
      </g>
      <path d="M163 1866.96c-37.552 0-68.04 30.49-68.04 68.04 0 37.55 30.488 68.04 68.04 68.04 37.552 0 68.04-30.49 68.04-68.04 0-37.55-30.488-68.04-68.04-68.04zm0 5.04c34.77 0 63 28.23 63 63s-28.23 63-63 63-63-28.23-63-63 28.23-63 63-63z" />
    </g>
  </g>
</svg>

<?xml version="1.0" encoding="UTF-8" standalone="no"?>
<!DOCTYPE svg PUBLIC "-//W3C//DTD SVG 1.1//EN" "http://www.w3.org/Graphics/SVG/1.1/DTD/svg11.dtd">
<svg width="135" height="135" viewBox="0 0 135 135" version="1.1" xmlns="http://www.w3.org/2000/svg" xmlns:xlink="http://www.w3.org/1999/xlink" xml:space="preserve" xmlns:serif="http://www.serif.com/" style="fill-rule:evenodd;clip-rule:evenodd;stroke-linejoin:round;stroke-miterlimit:2;">
    <g transform="matrix(1,0,0,1,-515,-643)">
        <g transform="matrix(1,0,0,1,1177,-1730.64)">
            <g id="Shield" transform="matrix(0.992063,0,0,0.992063,-756.206,521.5)">
                <circle cx="163" cy="1935" r="63" style="fill:rgb(164,166,170);"/>
                <clipPath id="_clip1">
                    <circle cx="163" cy="1935" r="63"/>
                </clipPath>
                <g clip-path="url(#_clip1)">
                    <g transform="matrix(1.008,0,0,1.008,-1186.21,-13.968)">
                        <path d="M1338.14,1982.82C1307.71,1967.59 1294.93,1940.92 1298,1904C1311.89,1904.44 1325.34,1900.33 1338.5,1893L1338.81,1893.17C1351.87,1900.4 1365.22,1904.44 1379,1904C1382.08,1941.07 1369.19,1967.8 1338.5,1983L1338.14,1982.82ZM1309,1925C1330.03,1933.79 1354.78,1950.88 1356,1958C1357,1963.84 1338.5,1974 1338.5,1974C1319.22,1959.75 1308.85,1943.53 1309,1925ZM1365,1944C1369.91,1936.24 1371.53,1924.82 1371,1911C1360.2,1910.6 1349.1,1901.8 1338.5,1902C1331.2,1902.14 1320.4,1906.43 1319,1911C1316.27,1919.89 1339.01,1936.82 1365,1944Z"/>
                    </g>
                </g>
                <path d="M163,1866.96C125.448,1866.96 94.96,1897.45 94.96,1935C94.96,1972.55 125.448,2003.04 163,2003.04C200.552,2003.04 231.04,1972.55 231.04,1935C231.04,1897.45 200.552,1866.96 163,1866.96ZM163,1872C197.771,1872 226,1900.23 226,1935C226,1969.77 197.771,1998 163,1998C128.229,1998 100,1969.77 100,1935C100,1900.23 128.229,1872 163,1872Z"/>
            </g>
        </g>
    </g>
</svg>
